src/assets/icons/youtube-color.svg

<svg fill="none" height="39" viewBox="0 0 39 39" width="39" xmlns="http://www.w3.org/2000/svg" xmlns:xlink="http://www.w3.org/1999/xlink"><clipPath id="a"><path d="m0 0h39v39h-39z"/></clipPath><mask id="b" height="29" maskUnits="userSpaceOnUse" width="25" x="7" y="10"><path d="m31.6725 10.1477h-24.34486v28.2176h24.34486z" fill="#fff"/></mask><g clip-path="url(#a)"><path d="m26.9883 39h-14.9766c-6.63655 0-12.0117-5.3752-12.0117-12.0117v-14.9766c0-6.63655 5.37515-12.0117 12.0117-12.0117h14.9766c6.6365 0 12.0117 5.37515 12.0117 12.0117v14.9766c0 6.6365-5.3752 12.0117-12.0117 12.0117z" fill="#fff"/><g mask="url(#b)"><path d="m19.5001 10.1477c-11.45738.2009-12.17246-.45796-12.17246 8.5328 0 8.9907.69097 8.2917 12.17246 8.5327 11.6421-.3374 12.1724.4259 12.1724-8.5327 0-8.95862-1.1007-8.3962-12.1724-8.5328zm-2.4104 12.2046v-7.3597l6.2589 3.6879-6.2589 3.6798z" fill="#f00"/><path d="m23.3486 18.6805-6.259 3.6718v-7.3597z" fill="#fff"/></g></g></svg>

<svg width="39" height="39" viewBox="0 0 39 39" fill="none" xmlns="http://www.w3.org/2000/svg">
<g clip-path="url(#clip0_34_7246)">
<path d="M26.9883 39H12.0117C5.37515 39 0 33.6248 0 26.9883V12.0117C0 5.37515 5.37515 0 12.0117 0H26.9883C33.6248 0 39 5.37515 39 12.0117V26.9883C39 33.6248 33.6248 39 26.9883 39Z" fill="white"/>
<mask id="mask0_34_7246" style="mask-type:luminance" maskUnits="userSpaceOnUse" x="7" y="10" width="25" height="29">
<path d="M31.6725 10.1477H7.32764V38.3653H31.6725V10.1477Z" fill="white"/>
</mask>
<g mask="url(#mask0_34_7246)">
<path d="M19.5001 10.1477C8.04272 10.3486 7.32764 9.68974 7.32764 18.6805C7.32764 27.6712 8.01861 26.9722 19.5001 27.2132C31.1422 26.8758 31.6725 27.6391 31.6725 18.6805C31.6725 9.72188 30.5718 10.2843 19.5001 10.1477ZM17.0897 22.3523V14.9926L23.3486 18.6805L17.0897 22.3603V22.3523Z" fill="#FF0000"/>
<path d="M23.3486 18.6805L17.0896 22.3523V14.9926L23.3486 18.6805Z" fill="white"/>
</g>
</g>
<defs>
<clipPath id="clip0_34_7246">
<rect width="39" height="39" fill="white"/>
</clipPath>
</defs>
</svg>
